svgs/light/hands-holding-dollar.svg

<svg xmlns="http://www.w3.org/2000/svg" viewBox="0 0 640 512"><!--! Font Awesome Pro 6.4.0 by @fontawesome - https://fontawesome.com License - https://fontawesome.com/license (Commercial License) Copyright 2023 Fonticons, Inc. --><path d="M320 0c8.8 0 16 7.2 16 16V32.8c11 1.2 21.6 3.7 31.2 6.3c8.5 2.3 13.5 11.1 11.2 19.7s-11.1 13.5-19.6 11.2c-12.1-3.3-24-5.8-35-5.9c-9.2-.1-19.1 2.1-26.1 6.3c-6.4 3.9-9.6 8.8-9.6 15.8c0 5.1 2 8.7 8.7 12.8c7.6 4.7 18.3 8.1 31.9 12.3l.4 .1c12.3 3.8 27.3 8.5 39.1 16.1c12.9 8.3 23.6 21.3 23.8 40.9c.3 20.6-9.9 35.6-24 44.5c-9.7 6.2-20.9 9.5-32 10.6V240c0 8.8-7.2 16-16 16s-16-7.2-16-16l0-18.6c-11-2.4-21.3-6-30.4-9.3c-2.3-.8-4.6-1.6-6.7-2.4c-8.4-2.9-12.8-12-10-20.3s12-12.8 20.3-10c2.6 .9 5.2 1.8 7.7 2.7l0 0 0 0 0 0c14.7 5.1 26.8 9.3 39.7 9.8c10 .3 19.7-1.9 26.2-6.1c5.8-3.7 9.3-8.9 9.2-17.1c-.1-6.1-2.6-10.2-9.2-14.4c-7.6-4.9-18.2-8.4-31.7-12.6l-1.7-.5c-11.9-3.7-26.3-8.1-37.5-15.1c-12.8-7.9-23.7-20.4-23.8-39.9c-.1-20.6 11.1-34.9 25-43.3c7.1-4.3 15-7.2 22.9-8.9V16c0-8.8 7.2-16 16-16zM64 64c35.3 0 64 28.7 64 64V252.3c0 4.6 .4 9.1 1.3 13.5c2.1-3.2 4.6-6.3 7.4-9.1c21.7-21.7 56.9-21.7 78.6 0L306.6 348c5.1 5.1 9.6 10.6 13.4 16.6c3.8-5.9 8.3-11.5 13.4-16.6l91.3-91.3c21.7-21.7 56.9-21.7 78.6 0c2.8 2.8 5.3 5.9 7.4 9.1c.9-4.4 1.3-8.9 1.3-13.5V128c0-35.3 28.7-64 64-64s64 28.7 64 64V344.2c0 29.7-11.8 58.2-32.8 79.2l-83.9 83.9c-6.2 6.2-16.4 6.2-22.6 0s-6.2-16.4 0-22.6l83.9-83.9c15-15 23.4-35.4 23.4-56.6V128c0-17.7-14.3-32-32-32s-32 14.3-32 32V252.3c0 27.1-10.8 53.1-29.9 72.2l-10.8 10.8-44 44-16 16c-6.2 6.2-16.4 6.2-22.6 0s-6.2-16.4 0-22.6l16-16 0 0 44-44 0 0c9.2-9.2 9.2-24.2 0-33.4s-24.2-9.2-33.4 0L356 370.6c-12.8 12.8-20 30.2-20 48.3V496c0 8.8-7.2 16-16 16s-16-7.2-16-16V418.9c0-18.1-7.2-35.5-20-48.3l-91.3-91.3c-9.2-9.2-24.2-9.2-33.4 0s-9.2 24.2 0 33.4l44 44 16 16c6.2 6.2 6.2 16.4 0 22.6s-16.4 6.2-22.6 0l-16-16 0 0-44-44 0 0-10.7-10.8C106.8 305.4 96 279.4 96 252.3V128c0-17.7-14.3-32-32-32s-32 14.3-32 32V344.2c0 21.2 8.4 41.6 23.4 56.6l83.9 83.9c6.2 6.2 6.2 16.4 0 22.6s-16.4 6.2-22.6 0L32.8 423.4C11.8 402.4 0 373.9 0 344.2V128C0 92.7 28.7 64 64 64z"/></svg>

<svg xmlns="http://www.w3.org/2000/svg" viewBox="0 0 640 512"><!--! Font Awesome Pro 6.3.0 by @fontawesome - https://fontawesome.com License - https://fontawesome.com/license (Commercial License) Copyright 2023 Fonticons, Inc. --><path d="M319.1 .0003C328.8 .0003 336 7.164 336 16V32.77C346.1 33.98 357.6 36.45 367.2 39.07C375.7 41.4 380.8 50.2 378.4 58.72C376.1 67.25 367.3 72.27 358.8 69.94C346.7 66.64 334.8 64.18 323.7 64.01C314.5 63.86 304.6 66.08 297.7 70.31C291.3 74.19 288 79.1 288.1 86.13C288.1 91.21 290.1 94.83 296.7 98.93C304.3 103.6 315 106.1 328.6 111.2L329.1 111.3C341.4 115.2 356.4 119.8 368.2 127.4C381.1 135.8 391.7 148.7 391.1 168.3C392.3 188.9 382.1 203.9 367.1 212.9C358.3 219 347 222.3 336 223.5V239.1C336 248.8 328.8 255.1 320 255.1C311.2 255.1 304 248.8 304 239.1V221.4C293 219 282.7 215.4 273.6 212.2C271.2 211.3 268.1 210.5 266.8 209.8C258.5 206.9 254 197.8 256.9 189.5C259.7 181.1 268.8 176.7 277.2 179.5C279.8 180.4 282.4 181.3 284.9 182.2C299.6 187.3 311.6 191.5 324.5 191.1C334.5 192.3 344.2 190.1 350.8 185.9C356.6 182.2 360.1 176.1 359.1 168.7C359.9 162.7 357.4 158.6 350.8 154.3C343.3 149.4 332.6 145.9 319.1 141.8L317.4 141.2C305.5 137.5 291.2 133.1 279.9 126.1C267.1 118.2 256.2 105.7 256.1 86.29C255.1 65.73 267.2 51.37 281.1 42.95C288.2 38.64 296.1 35.76 303.1 34.03V16C303.1 7.164 311.2 0 319.1 0L319.1 .0003zM64 64C99.35 64 128 92.65 128 128V252.3C128 256.9 128.4 261.4 129.3 265.8C131.4 262.6 133.9 259.5 136.7 256.7C158.4 234.1 193.6 234.1 215.3 256.7L306.6 347.1C311.7 353.1 316.2 358.6 320 364.6C323.8 358.6 328.3 353.1 333.4 347.1L424.7 256.7C446.4 234.1 481.6 234.1 503.3 256.7C506.1 259.5 508.6 262.6 510.7 265.8C511.6 261.4 512 256.9 512 252.3V128C512 92.65 540.7 64 576 64C611.3 64 640 92.65 640 128V344.2C640 373.9 628.2 402.4 607.2 423.4L523.3 507.3C517.1 513.6 506.9 513.6 500.7 507.3C494.4 501.1 494.4 490.9 500.7 484.7L584.6 400.8C599.6 385.8 608 365.5 608 344.2V128C608 110.3 593.7 96 576 96C558.3 96 544 110.3 544 128V252.3C544 279.4 533.2 305.4 514.1 324.5L443.3 395.3C437.1 401.6 426.9 401.6 420.7 395.3C414.4 389.1 414.4 378.9 420.7 372.7L480.7 312.7C489.9 303.5 489.9 288.5 480.7 279.3C471.5 270.1 456.5 270.1 447.3 279.3L356 370.6C343.2 383.4 336 400.8 336 418.9V496C336 504.8 328.8 512 320 512C311.2 512 304 504.8 304 496V418.9C304 400.8 296.8 383.4 283.1 370.6L192.7 279.3C183.5 270.1 168.5 270.1 159.3 279.3C150.1 288.5 150.1 303.5 159.3 312.7L219.3 372.7C225.6 378.9 225.6 389.1 219.3 395.3C213.1 401.6 202.9 401.6 196.7 395.3L125.9 324.5C106.8 305.4 96 279.4 96 252.3V128C96 110.3 81.67 96 64 96C46.33 96 32 110.3 32 128V344.2C32 365.5 40.43 385.8 55.43 400.8L139.3 484.7C145.6 490.9 145.6 501.1 139.3 507.3C133.1 513.6 122.9 513.6 116.7 507.3L32.8 423.4C11.8 402.4 0 373.9 0 344.2V128C0 92.65 28.65 64 64 64H64z"/></svg>
